X: 30442
M: 6/8
L: 1/8
K: D
dcd AFD | FAc d2c | def gfg | Bed d2c |\
dAf ecA | ^GBe cBA | cea fdB | dB^G A2 :|
|: c/d/ |\
e2e cBA | ^GBe d2c | ABc def | gBe d2c |\
dA=c BFG | eBd c^GA | ae=g fcd | Adc d2 :|


